!!!COM: Music21
!!!OTL: strathspey_Mrs-James-MacInnes---Edinburgh
!!!OMV: strathspey_Mrs-James-MacInnes---Edinburgh
**kern
*clefG2
*k[f#]
*G:
*M4/4
=1
8.dL
16gJk
8.bL
16gJk
8.ccL
16aJk
16bKL
8.gJ
=
8.aL
16aJk
8.bL
16gJk
16aKL
8.AJ
8.AL
16BJk
=
8.dL
16gJk
8.bL
16gJk
8.ccL
16aJk
16bKL
8.ggJ
=
8.eeL
16bJk
8.ccL
16aJk
16bKL
8.gJ
8.gL
16eJk
!!linebreak:original
=||
*M4/4
8.dL
16gJk
8.bL
16gJk
8.ccL
16aJk
16bKL
8.gJ
=
8.aL
16aJk
8.bL
16gJk
16aKL
8.AJ
8.AL
16BJk
=
8.dL
16gJk
8.bL
16gJk
8.ccL
16aJk
16bKL
8.ggJ
=
8.eeL
16bJk
8.ccL
16aJk
16bKL
8.gJ
8.gL
16ddJk
!!linebreak:original
=||
8.ggL
16ddJk
8.ggL
16ddJk
4bb
8.ggL
16eeJk
=
8.ddL
16bbJk
8.ggL
16eeJk
16ff#KL
8.aaJ
12aaL
12gg
12ff#J
=
8.ggL
16ddJk
8.ggL
16ddJk
16ddKL
8.ggJ
4gg
=
8.eeL
16bJk
12ddL
12cc
12aJ
16bKL
8.gJ
8.gL
16ddJk
!!linebreak:original
=||
8.ggL
16ddJk
8.ggL
16ddJk
4bb
8.ggL
16eeJk
=
8.ddL
16bbJk
8.ggL
16eeJk
16ff#KL
8.aaJ
12aaL
12gg
12ff#J
=
8.ggL
16ddJk
12ggL
12aa
12bbJ
12aaL
12gg
12ff#J
8.ggL
16ddJk
=
12eeL
12dd
12ccJ
8.bL
16aJk
8.bL
16gJk
4g
=||
*-
